goodies/big-sur-replacement-icons/Youtube-Big-Sur-Icon-Dark.svg

<svg xmlns="http://www.w3.org/2000/svg" xmlns:xlink="http://www.w3.org/1999/xlink" width="1024" height="1024" viewBox="0 0 1024 1024">
  <defs>
    <path id="youtube-big-sur-icon-dark-b" d="M230.749668,-9.32256277e-15 L593.250332,9.32256277e-15 C673.487019,-5.41667744e-15 702.58278,8.354305 731.916113,24.0419433 C761.249447,39.7295817 784.270418,62.7505533 799.958057,92.0838867 C815.645695,121.41722 824,150.512981 824,230.749668 L824,593.250332 C824,673.487019 815.645695,702.58278 799.958057,731.916113 C784.270418,761.249447 761.249447,784.270418 731.916113,799.958057 C702.58278,815.645695 673.487019,824 593.250332,824 L230.749668,824 C150.512981,824 121.41722,815.645695 92.0838867,799.958057 C62.7505533,784.270418 39.7295817,761.249447 24.0419433,731.916113 C8.354305,702.58278 3.61111829e-15,673.487019 -6.21504185e-15,593.250332 L6.21504185e-15,230.749668 C-3.61111829e-15,150.512981 8.354305,121.41722 24.0419433,92.0838867 C39.7295817,62.7505533 62.7505533,39.7295817 92.0838867,24.0419433 C121.41722,8.354305 150.512981,5.41667744e-15 230.749668,-9.32256277e-15 Z"/>
    <filter id="youtube-big-sur-icon-dark-a" width="108.5%" height="109.7%" x="-4.2%" y="-4.2%" filterUnits="objectBoundingBox">
      <feOffset dy="10" in="SourceAlpha" result="shadowOffsetOuter1"/>
      <feGaussianBlur in="shadowOffsetOuter1" result="shadowBlurOuter1" stdDeviation="10"/>
      <feColorMatrix in="shadowBlurOuter1" result="shadowMatrixOuter1" values="0 0 0 0 0   0 0 0 0 0   0 0 0 0 0  0 0 0 0.33 0"/>
      <feOffset in="SourceAlpha" result="shadowOffsetOuter2"/>
      <feGaussianBlur in="shadowOffsetOuter2" result="shadowBlurOuter2" stdDeviation="10"/>
      <feColorMatrix in="shadowBlurOuter2" result="shadowMatrixOuter2" values="0 0 0 0 0   0 0 0 0 0   0 0 0 0 0  0 0 0 0.0534973145 0"/>
      <feMerge>
        <feMergeNode in="shadowMatrixOuter1"/>
        <feMergeNode in="shadowMatrixOuter2"/>
      </feMerge>
    </filter>
    <radialGradient id="youtube-big-sur-icon-dark-e" cx="38.683%" cy="50%" r="71.139%" fx="38.683%" fy="50%" gradientTransform="matrix(.40167 .81888 -.57307 .57397 .518 -.104)">
      <stop offset="0%" stop-color="#FDFCFC" stop-opacity=".277"/>
      <stop offset="100%" stop-color="#D0A9A9" stop-opacity="0"/>
    </radialGradient>
    <linearGradient id="youtube-big-sur-icon-dark-f" x1="47.884%" x2="59.505%" y1="41.881%" y2="63.177%">
      <stop offset="0%" stop-color="#891515" stop-opacity="0"/>
      <stop offset="100%" stop-color="#901818" stop-opacity=".169"/>
    </linearGradient>
    <linearGradient id="youtube-big-sur-icon-dark-g" x1="100%" x2="89.279%" y1="32.235%" y2="39.614%">
      <stop offset="0%" stop-color="#137524" stop-opacity=".15"/>
      <stop offset="100%" stop-color="#FFF" stop-opacity="0"/>
    </linearGradient>
    <path id="youtube-big-sur-icon-dark-d" d="M445.724697,66.6515409 C445.724697,66.6515409 255.779315,66.6515409 208.105555,79.0395193 C182.579378,86.1717708 161.560553,107.190827 154.42823,133.092424 C142.040251,180.766218 142.040251,279.494727 142.040251,279.494727 C142.040251,279.494727 142.040251,378.598025 154.42823,425.521458 C161.560553,451.422704 182.203984,472.066375 208.105555,479.198801 C256.154709,491.96233 445.724697,491.96233 445.724697,491.96233 C445.724697,491.96233 636.046645,491.96233 683.719417,479.574372 C709.621174,472.442097 730.264184,452.173726 737.021159,425.897029 C749.785812,378.598146 749.785812,279.870298 749.785812,279.870298 C749.785812,279.870298 750.159808,180.766218 737.021159,133.092424 C730.264184,107.190827 709.621174,86.5476453 683.719417,79.7906615 C636.046645,66.6515409 445.724697,66.6515409 445.724697,66.6515409 Z M385.287105,188.277881 L543.326253,279.494727 L385.287105,370.336002 L385.287105,188.277881 L385.287105,188.277881 Z"/>
    <filter id="youtube-big-sur-icon-dark-c" width="124.7%" height="135.3%" x="-11.4%" y="-10.6%" filterUnits="objectBoundingBox">
      <feOffset dx="6" dy="30" in="SourceAlpha" result="shadowOffsetOuter1"/>
      <feGaussianBlur in="shadowOffsetOuter1" result="shadowBlurOuter1" stdDeviation="20"/>
      <feColorMatrix in="shadowBlurOuter1" values="0 0 0 0 0   0 0 0 0 0   0 0 0 0 0  0 0 0 0.15 0"/>
    </filter>
    <filter id="youtube-big-sur-icon-dark-h" width="120.4%" height="129.2%" x="-9.2%" y="-7.5%" filterUnits="objectBoundingBox">
      <feMorphology in="SourceAlpha" radius="4" result="shadowSpreadInner1"/>
      <feGaussianBlur in="shadowSpreadInner1" result="shadowBlurInner1" stdDeviation="20"/>
      <feOffset in="shadowBlurInner1" result="shadowOffsetInner1"/>
      <feComposite in="shadowOffsetInner1" in2="SourceAlpha" k2="-1" k3="1" operator="arithmetic" result="shadowInnerInner1"/>
      <feColorMatrix in="shadowInnerInner1" values="0 0 0 0 0.245286564   0 0 0 0 1   0 0 0 0 0.223723323  0 0 0 0.15 0"/>
    </filter>
    <radialGradient id="youtube-big-sur-icon-dark-i" cx="33.501%" cy="-10.033%" r="133.886%" fx="33.501%" fy="-10.033%" gradientTransform="matrix(.40315 .8174 -.57202 .57608 .143 -.316)">
      <stop offset="0%" stop-color="#401515" stop-opacity="0"/>
      <stop offset="68.782%" stop-color="#3D1313" stop-opacity=".101"/>
      <stop offset="100%" stop-color="#4E1414"/>
    </radialGradient>
    <filter id="youtube-big-sur-icon-dark-j" width="129.6%" height="142.3%" x="-14.8%" y="-21.2%" filterUnits="objectBoundingBox">
      <feGaussianBlur in="SourceGraphic" stdDeviation="30"/>
    </filter>
    <radialGradient id="youtube-big-sur-icon-dark-k" cx="50%" cy="50%" r="50%" fx="50%" fy="50%" gradientTransform="matrix(0 1 -1.03965 0 1.02 0)">
      <stop offset="0%" stop-color="#FFF" stop-opacity="0"/>
      <stop offset="72.26%" stop-color="#FFF" stop-opacity="0"/>
      <stop offset="100%" stop-color="#FFF" stop-opacity=".113"/>
    </radialGradient>
    <filter id="youtube-big-sur-icon-dark-l" width="115.8%" height="122.6%" x="-7.9%" y="-11.3%" filterUnits="objectBoundingBox">
      <feGaussianBlur in="SourceGraphic" stdDeviation="16"/>
    </filter>
    <radialGradient id="youtube-big-sur-icon-dark-m" cx="12.291%" cy="57.989%" r="58.338%" fx="12.291%" fy="57.989%" gradientTransform="matrix(.38076 .90162 -.79371 .43253 .536 .218)">
      <stop offset="0%" stop-color="#FFF"/>
      <stop offset="100%" stop-color="#FFF" stop-opacity="0"/>
    </radialGradient>
    <filter id="youtube-big-sur-icon-dark-n" width="195.7%" height="208.8%" x="-47.9%" y="-54.4%" filterUnits="objectBoundingBox">
      <feGaussianBlur in="SourceGraphic" stdDeviation="60"/>
    </filter>
    <radialGradient id="youtube-big-sur-icon-dark-o" cx="39.307%" cy="10.281%" r="103.156%" fx="39.307%" fy="10.281%" gradientTransform="scale(.40671 1) rotate(55.609 .68 .646)">
      <stop offset="0%" stop-color="#FFF"/>
      <stop offset="100%" stop-color="#FFF" stop-opacity="0"/>
    </radialGradient>
    <filter id="youtube-big-sur-icon-dark-p" width="137.6%" height="192.4%" x="-18.8%" y="-46.2%" filterUnits="objectBoundingBox">
      <feGaussianBlur in="SourceGraphic" stdDeviation="50"/>
    </filter>
    <filter id="youtube-big-sur-icon-dark-q" width="195.7%" height="208.8%" x="-47.9%" y="-54.4%" filterUnits="objectBoundingBox">
      <feGaussianBlur in="SourceGraphic" stdDeviation="60"/>
    </filter>
    <radialGradient id="youtube-big-sur-icon-dark-r" cx="39.307%" cy="10.281%" r="99.633%" fx="39.307%" fy="10.281%" gradientTransform="scale(.45772 1) rotate(58.692 .626 .517)">
      <stop offset="0%" stop-color="#FFF"/>
      <stop offset="100%" stop-color="#FFF" stop-opacity="0"/>
    </radialGradient>
    <filter id="youtube-big-sur-icon-dark-s" width="155.1%" height="220.5%" x="-27.6%" y="-60.2%" filterUnits="objectBoundingBox">
      <feGaussianBlur in="SourceGraphic" stdDeviation="50"/>
    </filter>
    <linearGradient id="youtube-big-sur-icon-dark-t" x1="0%" x2="0%" y1="0%" y2="100%">
      <stop offset="0%" stop-color="#FFA2A2"/>
      <stop offset="100%" stop-color="#FFF"/>
    </linearGradient>
    <polygon id="youtube-big-sur-icon-dark-u" points="609.326 512.376 451.287 603.217 451.287 421.159"/>
    <filter id="youtube-big-sur-icon-dark-v" width="113.3%" height="111.5%" x="-6.6%" y="-5.8%" filterUnits="objectBoundingBox">
      <feGaussianBlur in="SourceAlpha" result="shadowBlurInner1" stdDeviation="10"/>
      <feOffset dy="1" in="shadowBlurInner1" result="shadowOffsetInner1"/>
      <feComposite in="shadowOffsetInner1" in2="SourceAlpha" k2="-1" k3="1" operator="arithmetic" result="shadowInnerInner1"/>
      <feColorMatrix in="shadowInnerInner1" values="0 0 0 0 0   0 0 0 0 0   0 0 0 0 0  0 0 0 0.19998361 0"/>
    </filter>
  </defs>
  <g fill="none" fill-rule="evenodd">
    <g transform="translate(100 100)">
      <use fill="#000" filter="url(#youtube-big-sur-icon-dark-a)" xlink:href="#youtube-big-sur-icon-dark-b"/>
      <use fill="#FFEBE9" xlink:href="#youtube-big-sur-icon-dark-b"/>
    </g>
    <g transform="translate(66 232.881)">
      <use fill="#000" filter="url(#youtube-big-sur-icon-dark-c)" xlink:href="#youtube-big-sur-icon-dark-d"/>
      <use fill="red" xlink:href="#youtube-big-sur-icon-dark-d"/>
      <use fill="url(#youtube-big-sur-icon-dark-e)" xlink:href="#youtube-big-sur-icon-dark-d"/>
      <use fill="url(#youtube-big-sur-icon-dark-f)" xlink:href="#youtube-big-sur-icon-dark-d"/>
      <use fill="url(#youtube-big-sur-icon-dark-g)" xlink:href="#youtube-big-sur-icon-dark-d"/>
      <use fill="#000" filter="url(#youtube-big-sur-icon-dark-h)" xlink:href="#youtube-big-sur-icon-dark-d"/>
      <path fill="url(#youtube-big-sur-icon-dark-i)" d="M445.724697,66.6515409 C445.724697,66.6515409 255.779315,66.6515409 208.105555,79.0395193 C182.579378,86.1717708 161.560553,107.190827 154.42823,133.092424 C142.040251,180.766218 142.040251,279.494727 142.040251,279.494727 C142.040251,279.494727 142.040251,378.598025 154.42823,425.521458 C161.560553,451.422704 182.203984,472.066375 208.105555,479.198801 C256.154709,491.96233 445.724697,491.96233 445.724697,491.96233 C445.724697,491.96233 636.046645,491.96233 683.719417,479.574372 C709.621174,472.442097 730.264184,452.173726 737.021159,425.897029 C749.785812,378.598146 749.785812,279.870298 749.785812,279.870298 C749.785812,279.870298 750.159808,180.766218 737.021159,133.092424 C730.264184,107.190827 709.621174,86.5476453 683.719417,79.7906615 C636.046645,66.6515409 445.724697,66.6515409 445.724697,66.6515409 Z M385.287105,188.277881 L543.326253,279.494727 L385.287105,370.336002 L385.287105,188.277881 L385.287105,188.277881 Z" filter="url(#youtube-big-sur-icon-dark-j)" opacity=".1"/>
      <path fill="url(#youtube-big-sur-icon-dark-k)" d="M445.724697,66.6515409 C445.724697,66.6515409 255.779315,66.6515409 208.105555,79.0395193 C182.579378,86.1717708 161.560553,107.190827 154.42823,133.092424 C142.040251,180.766218 142.040251,279.494727 142.040251,279.494727 C142.040251,279.494727 142.040251,378.598025 154.42823,425.521458 C161.560553,451.422704 182.203984,472.066375 208.105555,479.198801 C256.154709,491.96233 445.724697,491.96233 445.724697,491.96233 C445.724697,491.96233 636.046645,491.96233 683.719417,479.574372 C709.621174,472.442097 730.264184,452.173726 737.021159,425.897029 C749.785812,378.598146 749.785812,279.870298 749.785812,279.870298 C749.785812,279.870298 750.159808,180.766218 737.021159,133.092424 C730.264184,107.190827 709.621174,86.5476453 683.719417,79.7906615 C636.046645,66.6515409 445.724697,66.6515409 445.724697,66.6515409 Z" filter="url(#youtube-big-sur-icon-dark-l)"/>
      <g opacity=".786" transform="translate(.677 21.26)">
        <path fill="url(#youtube-big-sur-icon-dark-m)" d="M340.452227,139.859803 C391.834687,139.859803 439.416162,151.345687 478.323511,170.878075 C459.569977,167.522831 439.928213,165.742216 419.697196,165.742216 C288.182092,165.742216 181.568035,240.988652 181.568035,333.809835 C181.568035,390.366418 221.149021,440.398292 281.826846,470.859651 C178.65936,452.429044 102.323066,386.470044 102.323066,307.927421 C102.323066,215.106239 208.937123,139.859803 340.452227,139.859803 Z" filter="url(#youtube-big-sur-icon-dark-n)"/>
        <path fill="url(#youtube-big-sur-icon-dark-o)" d="M12.931152,223.050743 C36.8106097,105.740668 233.801922,18.6242223 452.923562,28.4707152 C672.045203,38.3172081 830.320264,141.397973 806.440807,258.708048 C799.442793,293.086446 777.577639,324.871764 744.645266,352.383543 C767.204167,234.848596 626.600239,119.060644 426.987208,92.2371705 C225.787691,65.2005096 40.3598595,138.723483 11.0094922,256.674802 C10.0136996,245.651333 10.6172836,234.417839 12.931152,223.050743 Z" filter="url(#youtube-big-sur-icon-dark-p)" transform="rotate(-4 409.686 190.047)"/>
      </g>
      <g opacity=".568" transform="matrix(-1 0 0 1 892.677 .26)">
        <path fill="url(#youtube-big-sur-icon-dark-m)" d="M340.452227,160.859803 C391.834687,160.859803 439.416162,172.345687 478.323511,191.878075 C459.569977,188.522831 439.928213,186.742216 419.697196,186.742216 C288.182092,186.742216 181.568035,261.988652 181.568035,354.809835 C181.568035,411.366418 221.149021,461.398292 281.826846,491.859651 C178.65936,473.429044 102.323066,407.470044 102.323066,328.927421 C102.323066,236.106239 208.937123,160.859803 340.452227,160.859803 Z" filter="url(#youtube-big-sur-icon-dark-q)" opacity=".786"/>
        <path fill="url(#youtube-big-sur-icon-dark-r)" d="M291,50 C441.221452,50 563,144.09029 563,260.156545 C563,264.080078 562.86084,267.978499 562.586126,271.849021 C520.993049,190.714556 418.552486,133.33794 298.771429,133.33794 C166.016341,133.33794 54.5616425,203.817144 23.6392184,299.000154 C20.5925043,286.414663 19,273.429295 19,260.156545 C19,144.09029 140.778548,50 291,50 Z" filter="url(#youtube-big-sur-icon-dark-s)" opacity=".786" transform="rotate(-11 291 174.5)"/>
      </g>
    </g>
    <use fill="url(#youtube-big-sur-icon-dark-t)" xlink:href="#youtube-big-sur-icon-dark-u"/>
    <use fill="#000" filter="url(#youtube-big-sur-icon-dark-v)" xlink:href="#youtube-big-sur-icon-dark-u"/>
  </g>
</svg>

<svg xmlns="http://www.w3.org/2000/svg" xmlns:xlink="http://www.w3.org/1999/xlink" width="1024" height="1024" viewBox="0 0 1024 1024"><defs><path id="b" d="M230.75 0h362.5c80.237 0 109.333 8.354 138.666 24.042C761.25 39.73 784.27 62.75 799.958 92.084 815.646 121.417 824 150.513 824 230.75v362.5c0 80.237-8.354 109.333-24.042 138.666-15.688 29.333-38.709 52.354-68.042 68.042C702.583 815.646 673.487 824 593.25 824h-362.5c-80.237 0-109.333-8.354-138.666-24.042C62.75 784.27 39.73 761.25 24.042 731.916 8.354 702.583 0 673.487 0 593.25v-362.5c0-80.237 8.354-109.333 24.042-138.666C39.73 62.75 62.75 39.73 92.084 24.042 121.417 8.354 150.513 0 230.75 0z"/><filter id="a" width="108.5%" height="109.7%" x="-4.2%" y="-4.2%" filterUnits="objectBoundingBox"><feOffset dy="10" in="SourceAlpha" result="shadowOffsetOuter1"/><feGaussianBlur in="shadowOffsetOuter1" result="shadowBlurOuter1" stdDeviation="10"/><feColorMatrix in="shadowBlurOuter1" result="shadowMatrixOuter1" values="0 0 0 0 0 0 0 0 0 0 0 0 0 0 0 0 0 0 0.33 0"/><feOffset in="SourceAlpha" result="shadowOffsetOuter2"/><feGaussianBlur in="shadowOffsetOuter2" result="shadowBlurOuter2" stdDeviation="10"/><feColorMatrix in="shadowBlurOuter2" result="shadowMatrixOuter2" values="0 0 0 0 0 0 0 0 0 0 0 0 0 0 0 0 0 0 0.0534973145 0"/><feMerge><feMergeNode in="shadowMatrixOuter1"/><feMergeNode in="shadowMatrixOuter2"/></feMerge></filter><radialGradient id="e" cx="38.683%" cy="50%" r="71.139%" fx="38.683%" fy="50%" gradientTransform="matrix(.40167 .81888 -.57307 .57397 .518 -.104)"><stop offset="0%" stop-color="#FDFCFC" stop-opacity=".277"/><stop offset="100%" stop-color="#D0A9A9" stop-opacity="0"/></radialGradient><linearGradient id="f" x1="47.884%" x2="59.505%" y1="41.881%" y2="63.177%"><stop offset="0%" stop-color="#891515" stop-opacity="0"/><stop offset="100%" stop-color="#901818" stop-opacity=".169"/></linearGradient><linearGradient id="g" x1="100%" x2="89.279%" y1="32.235%" y2="39.614%"><stop offset="0%" stop-color="#137524" stop-opacity=".15"/><stop offset="100%" stop-color="#FFF" stop-opacity="0"/></linearGradient><path id="d" d="M445.725 66.652s-189.946 0-237.62 12.388c-25.526 7.132-46.544 28.15-53.677 54.052-12.388 47.674-12.388 146.403-12.388 146.403s0 99.103 12.388 146.026c7.133 25.902 27.776 46.545 53.678 53.678 48.049 12.763 237.619 12.763 237.619 12.763s190.322 0 237.994-12.388c25.902-7.132 46.545-27.4 53.302-53.677 12.765-47.299 12.765-146.027 12.765-146.027s.374-99.104-12.765-146.778c-6.757-25.901-27.4-46.544-53.302-53.301-47.672-13.14-237.994-13.14-237.994-13.14zm-60.438 121.626l158.04 91.217-158.04 90.841V188.278z"/><filter id="c" width="124.7%" height="135.3%" x="-11.4%" y="-10.6%" filterUnits="objectBoundingBox"><feOffset dx="6" dy="30" in="SourceAlpha" result="shadowOffsetOuter1"/><feGaussianBlur in="shadowOffsetOuter1" result="shadowBlurOuter1" stdDeviation="20"/><feColorMatrix in="shadowBlurOuter1" values="0 0 0 0 0 0 0 0 0 0 0 0 0 0 0 0 0 0 0.15 0"/></filter><filter id="h" width="120.4%" height="129.2%" x="-9.2%" y="-7.5%" filterUnits="objectBoundingBox"><feMorphology in="SourceAlpha" radius="4" result="shadowSpreadInner1"/><feGaussianBlur in="shadowSpreadInner1" result="shadowBlurInner1" stdDeviation="20"/><feOffset in="shadowBlurInner1" result="shadowOffsetInner1"/><feComposite in="shadowOffsetInner1" in2="SourceAlpha" k2="-1" k3="1" operator="arithmetic" result="shadowInnerInner1"/><feColorMatrix in="shadowInnerInner1" values="0 0 0 0 0.245286564 0 0 0 0 1 0 0 0 0 0.223723323 0 0 0 0.15 0"/></filter><radialGradient id="i" cx="33.501%" cy="-10.033%" r="133.886%" fx="33.501%" fy="-10.033%" gradientTransform="matrix(.40315 .8174 -.57202 .57608 .143 -.316)"><stop offset="0%" stop-color="#401515" stop-opacity="0"/><stop offset="68.782%" stop-color="#3D1313" stop-opacity=".101"/><stop offset="100%" stop-color="#4E1414"/></radialGradient><filter id="j" width="129.6%" height="142.3%" x="-14.8%" y="-21.2%" filterUnits="objectBoundingBox"><feGaussianBlur in="SourceGraphic" stdDeviation="30"/></filter><radialGradient id="k" cx="50%" cy="50%" r="50%" fx="50%" fy="50%" gradientTransform="matrix(0 1 -1.03965 0 1.02 0)"><stop offset="0%" stop-color="#FFF" stop-opacity="0"/><stop offset="72.26%" stop-color="#FFF" stop-opacity="0"/><stop offset="100%" stop-color="#FFF" stop-opacity=".113"/></radialGradient><filter id="l" width="115.8%" height="122.6%" x="-7.9%" y="-11.3%" filterUnits="objectBoundingBox"><feGaussianBlur in="SourceGraphic" stdDeviation="16"/></filter><radialGradient id="m" cx="12.291%" cy="57.989%" r="58.338%" fx="12.291%" fy="57.989%" gradientTransform="matrix(.38076 .90162 -.79371 .43253 .536 .218)"><stop offset="0%" stop-color="#FFF"/><stop offset="100%" stop-color="#FFF" stop-opacity="0"/></radialGradient><filter id="n" width="195.7%" height="208.8%" x="-47.9%" y="-54.4%" filterUnits="objectBoundingBox"><feGaussianBlur in="SourceGraphic" stdDeviation="60"/></filter><radialGradient id="o" cx="39.307%" cy="10.281%" r="103.156%" fx="39.307%" fy="10.281%" gradientTransform="scale(.40671 1) rotate(55.609 .68 .646)"><stop offset="0%" stop-color="#FFF"/><stop offset="100%" stop-color="#FFF" stop-opacity="0"/></radialGradient><filter id="p" width="137.6%" height="192.4%" x="-18.8%" y="-46.2%" filterUnits="objectBoundingBox"><feGaussianBlur in="SourceGraphic" stdDeviation="50"/></filter><filter id="q" width="195.7%" height="208.8%" x="-47.9%" y="-54.4%" filterUnits="objectBoundingBox"><feGaussianBlur in="SourceGraphic" stdDeviation="60"/></filter><radialGradient id="r" cx="39.307%" cy="10.281%" r="99.633%" fx="39.307%" fy="10.281%" gradientTransform="scale(.45772 1) rotate(58.692 .626 .517)"><stop offset="0%" stop-color="#FFF"/><stop offset="100%" stop-color="#FFF" stop-opacity="0"/></radialGradient><filter id="s" width="155.1%" height="220.5%" x="-27.6%" y="-60.2%" filterUnits="objectBoundingBox"><feGaussianBlur in="SourceGraphic" stdDeviation="50"/></filter><linearGradient id="t" x1="0%" x2="0%" y1="0%" y2="100%"><stop offset="0%" stop-color="#FFA2A2"/><stop offset="100%" stop-color="#FFF"/></linearGradient><path id="u" d="M609.326 512.376l-158.039 90.841V421.159z"/><filter id="v" width="113.3%" height="111.5%" x="-6.6%" y="-5.8%" filterUnits="objectBoundingBox"><feGaussianBlur in="SourceAlpha" result="shadowBlurInner1" stdDeviation="10"/><feOffset dy="1" in="shadowBlurInner1" result="shadowOffsetInner1"/><feComposite in="shadowOffsetInner1" in2="SourceAlpha" k2="-1" k3="1" operator="arithmetic" result="shadowInnerInner1"/><feColorMatrix in="shadowInnerInner1" values="0 0 0 0 0 0 0 0 0 0 0 0 0 0 0 0 0 0 0.19998361 0"/></filter></defs><g fill="none" fill-rule="evenodd"><g transform="translate(100 100)"><use fill="#000" filter="url(#a)" xlink:href="#b"/><use fill="#FFEBE9" xlink:href="#b"/></g><g transform="translate(66 232.881)"><use fill="#000" filter="url(#c)" xlink:href="#d"/><use fill="red" xlink:href="#d"/><use fill="url(#e)" xlink:href="#d"/><use fill="url(#f)" xlink:href="#d"/><use fill="url(#g)" xlink:href="#d"/><use fill="#000" filter="url(#h)" xlink:href="#d"/><path fill="url(#i)" d="M445.725 66.652s-189.946 0-237.62 12.388c-25.526 7.132-46.544 28.15-53.677 54.052-12.388 47.674-12.388 146.403-12.388 146.403s0 99.103 12.388 146.026c7.133 25.902 27.776 46.545 53.678 53.678 48.049 12.763 237.619 12.763 237.619 12.763s190.322 0 237.994-12.388c25.902-7.132 46.545-27.4 53.302-53.677 12.765-47.299 12.765-146.027 12.765-146.027s.374-99.104-12.765-146.778c-6.757-25.901-27.4-46.544-53.302-53.301-47.672-13.14-237.994-13.14-237.994-13.14zm-60.438 121.626l158.04 91.217-158.04 90.841V188.278z" filter="url(#j)" opacity=".1"/><path fill="url(#k)" d="M445.725 66.652s-189.946 0-237.62 12.388c-25.526 7.132-46.544 28.15-53.677 54.052-12.388 47.674-12.388 146.403-12.388 146.403s0 99.103 12.388 146.026c7.133 25.902 27.776 46.545 53.678 53.678 48.049 12.763 237.619 12.763 237.619 12.763s190.322 0 237.994-12.388c25.902-7.132 46.545-27.4 53.302-53.677 12.765-47.299 12.765-146.027 12.765-146.027s.374-99.104-12.765-146.778c-6.757-25.901-27.4-46.544-53.302-53.301-47.672-13.14-237.994-13.14-237.994-13.14z" filter="url(#l)"/><g opacity=".786"><path fill="url(#m)" d="M340.452 139.86c51.383 0 98.964 11.486 137.872 31.018-18.754-3.355-38.396-5.136-58.627-5.136-131.515 0-238.129 75.247-238.129 168.068 0 56.556 39.581 106.588 100.259 137.05-103.168-18.431-179.504-84.39-179.504-162.933 0-92.82 106.614-168.067 238.13-168.067z" filter="url(#n)" transform="translate(.677 21.26)"/><path fill="url(#o)" d="M12.931 223.05c23.88-117.31 220.87-204.426 439.993-194.58C672.045 38.318 830.32 141.399 806.44 258.709c-6.998 34.378-28.863 66.164-61.796 93.676C767.205 234.849 626.6 119.06 426.987 92.237 225.787 65.201 40.36 138.723 11.01 256.675c-.995-11.024-.392-22.257 1.922-33.624z" filter="url(#p)" transform="rotate(-4 714.428 190.984)"/></g><g opacity=".568"><path fill="url(#m)" d="M340.452 160.86c51.383 0 98.964 11.486 137.872 31.018-18.754-3.355-38.396-5.136-58.627-5.136-131.515 0-238.129 75.247-238.129 168.068 0 56.556 39.581 106.588 100.259 137.05-103.168-18.431-179.504-84.39-179.504-162.933 0-92.82 106.614-168.067 238.13-168.067z" filter="url(#q)" opacity=".786" transform="matrix(-1 0 0 1 892.677 .26)"/><path fill="url(#r)" d="M291 50c150.221 0 272 94.09 272 210.157 0 3.923-.14 7.821-.414 11.692-41.593-81.134-144.034-138.511-263.815-138.511-132.755 0-244.21 70.48-275.132 165.662A164.774 164.774 0 0 1 19 260.157C19 144.09 140.779 50 291 50z" filter="url(#s)" opacity=".786" transform="scale(-1 1) rotate(-11 -153.988 4810.033)"/></g></g><use fill="url(#t)" xlink:href="#u"/><use fill="#000" filter="url(#v)" xlink:href="#u"/></g></svg>
